X:43
T:Csavargónak, tekergőnek
K: F
M: 4/4
L: 1/4
g/g/a/g/ d/e/f/g/ | a/g/f/e/ d<c | G2 G z | 
g/g/a/g/ d/e/f/g/ | a/g/f/e/ d c | G2 G z | 
c d e/d/c/G/ | f (f/g/) a/a/f/a/ | g2 d z | 
g/g/a/g/ d/e/f/g/ | a/g/f/e/ d<c | G2 G z | 